src/modules/31-filestore/images/file.svg

<svg fill="none" height="16" viewBox="0 0 16 16" width="16" xmlns="http://www.w3.org/2000/svg" xmlns:xlink="http://www.w3.org/1999/xlink"><mask id="a" fill="#fff"><path clip-rule="evenodd" d="m6 5.8335c-.27614 0-.5.22385-.5.5 0 .27614.22386.5.5.5h4c.2761 0 .5-.22386.5-.5 0-.27615-.2239-.5-.5-.5zm-.5 2.5c0-.27615.22386-.5.5-.5h4c.2761 0 .5.22385.5.5 0 .27614-.2239.5-.5.5h-4c-.27614 0-.5-.22386-.5-.5zm0 2c0-.2761.22386-.5.5-.5h4c.2761 0 .5.2239.5.5s-.2239.5-.5.5h-4c-.27614 0-.5-.2239-.5-.5z" fill="#fff" fill-rule="evenodd"/></mask><path d="m3.33325 2h7.33335l2 2.66667v9.33333h-9.33335z" stroke="#383946" stroke-linecap="round" stroke-linejoin="round"/><path d="m6.5 6.3335c0 .27614-.22386.5-.5.5v-2c-.82843 0-1.5.67157-1.5 1.5zm-.5-.5c.27614 0 .5.22385.5.5h-2c0 .82842.67157 1.5 1.5 1.5zm4 0h-4v2h4zm-.5.5c0-.27615.22386-.5.5-.5v2c.8284 0 1.5-.67158 1.5-1.5zm.5.5c-.27614 0-.5-.22386-.5-.5h2c0-.82843-.6716-1.5-1.5-1.5zm-4 0h4v-2h-4zm0 0c-.82843 0-1.5.67157-1.5 1.5h2c0 .27614-.22386.5-.5.5zm4 0h-4v2h4zm1.5 1.5c0-.82843-.6716-1.5-1.5-1.5v2c-.27614 0-.5-.22386-.5-.5zm-1.5 1.5c.8284 0 1.5-.67158 1.5-1.5h-2c0-.27615.22386-.5.5-.5zm-4 0h4v-2h-4zm-1.5-1.5c0 .82842.67157 1.5 1.5 1.5v-2c.27614 0 .5.22385.5.5zm1.5.5c-.82843 0-1.5.67157-1.5 1.5h2c0 .2761-.22386.5-.5.5zm4 0h-4v2h4zm1.5 1.5c0-.82843-.6716-1.5-1.5-1.5v2c-.27614 0-.5-.2239-.5-.5zm-1.5 1.5c.8284 0 1.5-.6716 1.5-1.5h-2c0-.2761.22386-.5.5-.5zm-4 0h4v-2h-4zm-1.5-1.5c0 .8284.67157 1.5 1.5 1.5v-2c.27614 0 .5.2239.5.5z" fill="#383946" mask="url(#a)" opacity=".3"/></svg>

<svg width="16" height="16" viewBox="0 0 16 16" fill="none" xmlns="http://www.w3.org/2000/svg">
<path d="M3.33325 2H10.6666L12.6666 4.66667V14H3.33325V2Z" stroke="#383946" stroke-linecap="round" stroke-linejoin="round"/>
<g opacity="0.3">
<mask id="path-2-inside-1_1_3542" fill="white">
<path fill-rule="evenodd" clip-rule="evenodd" d="M6 5.8335C5.72386 5.8335 5.5 6.05735 5.5 6.3335C5.5 6.60964 5.72386 6.8335 6 6.8335H10C10.2761 6.8335 10.5 6.60964 10.5 6.3335C10.5 6.05735 10.2761 5.8335 10 5.8335H6ZM5.5 8.3335C5.5 8.05735 5.72386 7.8335 6 7.8335H10C10.2761 7.8335 10.5 8.05735 10.5 8.3335C10.5 8.60964 10.2761 8.8335 10 8.8335H6C5.72386 8.8335 5.5 8.60964 5.5 8.3335ZM5.5 10.3335C5.5 10.0574 5.72386 9.8335 6 9.8335H10C10.2761 9.8335 10.5 10.0574 10.5 10.3335C10.5 10.6096 10.2761 10.8335 10 10.8335H6C5.72386 10.8335 5.5 10.6096 5.5 10.3335Z"/>
</mask>
<path d="M6.5 6.3335C6.5 6.60964 6.27614 6.8335 6 6.8335V4.8335C5.17157 4.8335 4.5 5.50507 4.5 6.3335H6.5ZM6 5.8335C6.27614 5.8335 6.5 6.05735 6.5 6.3335H4.5C4.5 7.16192 5.17157 7.8335 6 7.8335V5.8335ZM10 5.8335H6V7.8335H10V5.8335ZM9.5 6.3335C9.5 6.05735 9.72386 5.8335 10 5.8335V7.8335C10.8284 7.8335 11.5 7.16192 11.5 6.3335H9.5ZM10 6.8335C9.72386 6.8335 9.5 6.60964 9.5 6.3335H11.5C11.5 5.50507 10.8284 4.8335 10 4.8335V6.8335ZM6 6.8335H10V4.8335H6V6.8335ZM6 6.8335C5.17157 6.8335 4.5 7.50507 4.5 8.3335H6.5C6.5 8.60964 6.27614 8.8335 6 8.8335V6.8335ZM10 6.8335H6V8.8335H10V6.8335ZM11.5 8.3335C11.5 7.50507 10.8284 6.8335 10 6.8335V8.8335C9.72386 8.8335 9.5 8.60964 9.5 8.3335H11.5ZM10 9.8335C10.8284 9.8335 11.5 9.16192 11.5 8.3335H9.5C9.5 8.05735 9.72386 7.8335 10 7.8335V9.8335ZM6 9.8335H10V7.8335H6V9.8335ZM4.5 8.3335C4.5 9.16192 5.17157 9.8335 6 9.8335V7.8335C6.27614 7.8335 6.5 8.05735 6.5 8.3335H4.5ZM6 8.8335C5.17157 8.8335 4.5 9.50507 4.5 10.3335H6.5C6.5 10.6096 6.27614 10.8335 6 10.8335V8.8335ZM10 8.8335H6V10.8335H10V8.8335ZM11.5 10.3335C11.5 9.50507 10.8284 8.8335 10 8.8335V10.8335C9.72386 10.8335 9.5 10.6096 9.5 10.3335H11.5ZM10 11.8335C10.8284 11.8335 11.5 11.1619 11.5 10.3335H9.5C9.5 10.0574 9.72386 9.8335 10 9.8335V11.8335ZM6 11.8335H10V9.8335H6V11.8335ZM4.5 10.3335C4.5 11.1619 5.17157 11.8335 6 11.8335V9.8335C6.27614 9.8335 6.5 10.0574 6.5 10.3335H4.5Z" fill="#383946" mask="url(#path-2-inside-1_1_3542)"/>
</g>
</svg>
